public/sourcegraph/logo--light.svg

<svg width="186" height="32" viewBox="0 0 186 32" fill="none" xmlns="http://www.w3.org/2000/svg">
<rect width="186" height="32" fill="black" fill-opacity="0"/>
<rect width="147.585" height="24.6962" fill="black" fill-opacity="0" transform="translate(38.4141 3.2)"/>
<path fill-rule="evenodd" clip-rule="evenodd" d="M41.4445 18.1406C41.4795 18.655 41.6926 19.115 42.0827 19.5225C42.4718 19.9299 43.0575 20.1347 43.8377 20.1347C44.4234 20.1347 44.8568 20.0061 45.1419 19.7488C45.424 19.4926 45.567 19.186 45.567 18.832C45.567 18.5305 45.46 18.2692 45.2469 18.0469C45.0338 17.8257 44.6705 17.6621 44.1568 17.5551L42.4285 17.1558C41.1521 16.8729 40.2206 16.381 39.6359 15.6803C39.0512 14.9806 38.7579 14.1698 38.7579 13.2478C38.7579 12.6624 38.8814 12.1098 39.1305 11.5861C39.3786 11.0633 39.7193 10.6116 40.1547 10.2299C40.5891 9.84916 41.1027 9.54356 41.6977 9.31307C42.2916 9.08361 42.9422 8.96837 43.6524 8.96837C44.5737 8.96837 45.354 9.09699 45.9922 9.35423C46.6304 9.61147 47.1492 9.93457 47.5475 10.3245C47.9469 10.7145 48.2434 11.1261 48.4379 11.5603C48.6325 11.9946 48.7477 12.3886 48.7838 12.7436L45.8326 13.4073C45.7966 13.2128 45.7389 13.0132 45.6597 12.8095C45.5804 12.6058 45.4518 12.4154 45.2747 12.2374C45.0966 12.0604 44.8805 11.9184 44.6231 11.8124C44.3658 11.7064 44.0518 11.6529 43.6792 11.6529C43.2181 11.6529 42.8238 11.7774 42.4955 12.0244C42.1681 12.2734 42.0034 12.5831 42.0034 12.9546C42.0034 13.2736 42.1136 13.5308 42.3359 13.7263C42.5572 13.9208 42.8454 14.0535 43.2006 14.1245L45.0616 14.5227C46.3555 14.7892 47.3262 15.2852 47.9737 16.0116C48.6211 16.7391 48.9444 17.5798 48.9444 18.5367C48.9444 19.0697 48.8414 19.5914 48.6386 20.1048C48.4338 20.6193 48.1198 21.0793 47.6947 21.4878C47.2696 21.8963 46.7374 22.2235 46.0992 22.4715C45.461 22.7184 44.7168 22.8429 43.8655 22.8429C42.8732 22.8429 42.0405 22.7009 41.3662 22.418C40.692 22.135 40.1434 21.7882 39.7172 21.3808C39.2911 20.9733 38.9771 20.535 38.7733 20.0657C38.5695 19.5955 38.4491 19.1757 38.4141 18.8032L41.4445 18.1406Z" fill="#F2F4F8"/>
<path fill-rule="evenodd" clip-rule="evenodd" d="M57.0804 8.96826C58.0552 8.96826 58.9641 9.1401 59.8062 9.48583C60.6482 9.83156 61.3749 10.31 61.9874 10.9212C62.5988 11.5324 63.0774 12.264 63.4233 13.114C63.7692 13.9649 63.9421 14.8951 63.9421 15.9055C63.9421 16.916 63.7692 17.841 63.4233 18.6837C63.0774 19.5265 62.5988 20.257 61.9874 20.8765C61.3759 21.498 60.6482 21.9795 59.8062 22.3252C58.9641 22.671 58.0552 22.8438 57.0804 22.8438C56.1046 22.8438 55.1957 22.671 54.3547 22.3252C53.5127 21.9795 52.786 21.4969 52.1745 20.8765C51.5621 20.257 51.0834 19.5265 50.7375 18.6837C50.3917 17.841 50.2188 16.916 50.2188 15.9055C50.2188 14.8961 50.3917 13.9649 50.7375 13.114C51.0834 12.263 51.5621 11.5324 52.1745 10.9212C52.786 10.31 53.5127 9.83156 54.3547 9.48583C55.1967 9.14113 56.1056 8.96826 57.0804 8.96826ZM57.0806 19.6275C57.5067 19.6275 57.9226 19.5493 58.3302 19.3887C58.7378 19.2303 59.093 18.9947 59.3946 18.6849C59.6951 18.3752 59.9391 17.9894 60.1264 17.5284C60.3127 17.0674 60.4054 16.5272 60.4054 15.9067C60.4054 15.2863 60.3127 14.7461 60.1264 14.2851C59.9391 13.8251 59.6962 13.4393 59.3946 13.1285C59.093 12.8188 58.7389 12.5842 58.3302 12.4237C57.9226 12.2642 57.5067 12.185 57.0806 12.185C56.6554 12.185 56.2386 12.2642 55.8309 12.4237C55.4233 12.5832 55.0692 12.8188 54.7676 13.1285C54.466 13.4393 54.2231 13.8251 54.0368 14.2851C53.8505 14.7461 53.7578 15.2863 53.7578 15.9067C53.7578 16.5272 53.8515 17.0664 54.0368 17.5284C54.2231 17.9894 54.466 18.3752 54.7676 18.6849C55.0692 18.9947 55.4233 19.2293 55.8309 19.3887C56.2386 19.5493 56.6554 19.6275 57.0806 19.6275Z" fill="#F2F4F8"/>
<path fill-rule="evenodd" clip-rule="evenodd" d="M74.7125 22.4468C74.6765 22.3038 74.6497 22.1011 74.6333 21.8346C74.6147 21.5681 74.6065 21.3026 74.6065 21.0371C74.2514 21.6586 73.7326 22.1052 73.0512 22.3809C72.3677 22.6546 71.6811 22.7925 70.9904 22.7925C70.1926 22.7925 69.4886 22.6536 68.8761 22.3809C68.2647 22.1052 67.7459 21.7378 67.3207 21.2769C66.8946 20.8159 66.5714 20.2705 66.3501 19.6418C66.1287 19.0131 66.0176 18.3433 66.0176 17.6354V9.36763H69.5544V16.9171C69.5544 17.6621 69.7449 18.2857 70.1268 18.7909C70.5076 19.2951 71.1149 19.5482 71.9487 19.5482C72.7465 19.5482 73.3589 19.3095 73.7841 18.831C74.2092 18.3525 74.4223 17.7321 74.4223 16.9696V9.36763H77.9591V20.0802C77.9591 20.5947 77.9725 21.0598 77.9993 21.4765C78.026 21.8932 78.0569 22.2163 78.0919 22.4468H74.7125Z" fill="#F2F4F8"/>
<path fill-rule="evenodd" clip-rule="evenodd" d="M89.1767 12.8764C88.8226 12.8054 88.4685 12.7694 88.1134 12.7694C87.6522 12.7694 87.2179 12.8321 86.8102 12.9556C86.4026 13.0801 86.0475 13.2838 85.7469 13.5668C85.4453 13.8508 85.2013 14.2274 85.0161 14.6966C84.8298 15.1668 84.7371 15.7564 84.7371 16.4644V22.4457H81.1992V9.3676H84.6301V11.3082C84.8246 10.8822 85.0778 10.5334 85.3877 10.2576C85.6975 9.98395 86.0259 9.77609 86.3717 9.63307C86.7166 9.49107 87.0634 9.39435 87.4083 9.34084C87.7541 9.28837 88.0691 9.26161 88.3522 9.26161C88.4943 9.26161 88.6312 9.26573 88.7639 9.27499C88.8967 9.28425 89.0347 9.29763 89.1757 9.31512V12.8764H89.1767Z" fill="#F2F4F8"/>
<path fill-rule="evenodd" clip-rule="evenodd" d="M96.889 12.2384C96.4279 12.2384 95.9976 12.3187 95.5992 12.4771C95.1998 12.6377 94.8499 12.8723 94.5493 13.182C94.2477 13.4927 94.0079 13.8776 93.8308 14.3385C93.6527 14.7995 93.5652 15.3222 93.5652 15.9067C93.5652 16.4911 93.6527 17.0149 93.8308 17.4748C94.0079 17.9368 94.2518 18.3247 94.5616 18.6447C94.8715 18.9648 95.2266 19.2035 95.625 19.3619C96.0244 19.5214 96.4536 19.6007 96.9148 19.6007C97.3584 19.6007 97.7526 19.5358 98.0985 19.4021C98.4433 19.2693 98.7408 19.0965 98.9899 18.8835C99.238 18.6705 99.4377 18.4318 99.588 18.1663C99.7383 17.9008 99.8494 17.6436 99.9205 17.3956L103.031 18.4318C102.889 18.9823 102.654 19.5194 102.326 20.04C101.998 20.5627 101.577 21.0319 101.063 21.4497C100.548 21.8654 99.9462 22.2019 99.2545 22.4581C98.5638 22.7153 97.7825 22.844 96.9148 22.844C95.9575 22.844 95.0578 22.6711 94.2158 22.3254C93.3738 21.9796 92.6429 21.497 92.0222 20.8766C91.4015 20.2571 90.9146 19.5255 90.5605 18.6839C90.2054 17.8422 90.0273 16.9161 90.0273 15.9056C90.0273 14.8962 90.2003 13.965 90.5461 13.1141C90.892 12.2631 91.3707 11.5325 91.9831 10.9213C92.5946 10.3101 93.313 9.83167 94.1365 9.48594C94.961 9.14123 95.8525 8.96837 96.8087 8.96837C97.696 8.96837 98.4886 9.09699 99.1886 9.35423C99.8886 9.61147 100.496 9.9428 101.011 10.3513C101.525 10.7588 101.941 11.228 102.26 11.7599C102.579 12.2919 102.81 12.8321 102.952 13.3816L99.7877 14.4445C99.6281 13.8961 99.3214 13.3909 98.8695 12.9299C98.4176 12.4689 97.7568 12.2384 96.889 12.2384Z" fill="#F2F4F8"/>
<path fill-rule="evenodd" clip-rule="evenodd" d="M116.701 18.6982C116.542 19.2652 116.291 19.8002 115.945 20.3055C115.599 20.8097 115.177 21.249 114.68 21.6205C114.184 21.993 113.604 22.2883 112.939 22.5105C112.274 22.7328 111.545 22.8429 110.746 22.8429C109.841 22.8429 108.981 22.6875 108.166 22.3778C107.351 22.0671 106.632 21.6112 106.013 21.0093C105.392 20.4063 104.9 19.6716 104.537 18.8011C104.173 17.9347 103.992 16.95 103.992 15.8511C103.992 14.8057 104.168 13.8569 104.524 13.007C104.878 12.1561 105.353 11.4348 105.947 10.8411C106.541 10.2473 107.227 9.78636 108.009 9.45915C108.788 9.13091 109.595 8.96628 110.428 8.96628C112.466 8.96628 114.052 9.56925 115.188 10.7742C116.323 11.9791 116.889 13.6357 116.889 15.7451C116.889 15.9941 116.881 16.2277 116.863 16.4499C116.845 16.6712 116.837 16.7998 116.837 16.8348H107.477C107.494 17.2597 107.597 17.6549 107.783 18.017C107.969 18.3813 108.208 18.6962 108.501 18.9616C108.793 19.2271 109.135 19.436 109.525 19.5862C109.915 19.7364 110.331 19.8116 110.775 19.8116C111.607 19.8116 112.258 19.6243 112.728 19.2528C113.199 18.8814 113.54 18.4029 113.751 17.8174L116.701 18.6982ZM113.405 14.4177C113.387 14.0987 113.323 13.7839 113.207 13.4741C113.093 13.1644 112.915 12.8897 112.676 12.651C112.435 12.4112 112.135 12.2167 111.771 12.0665C111.406 11.9163 110.977 11.8401 110.48 11.8401C110.02 11.8401 109.612 11.9204 109.258 12.0799C108.903 12.2394 108.601 12.4442 108.354 12.6911C108.105 12.9401 107.916 13.2138 107.783 13.5153C107.649 13.8168 107.574 14.1172 107.557 14.4187H113.405V14.4177Z" fill="#F2F4F8"/>
<path fill-rule="evenodd" clip-rule="evenodd" d="M121.41 22.313C121.532 23.0395 121.862 23.6322 122.393 24.0942C122.926 24.5541 123.617 24.7846 124.468 24.7846C125.584 24.7846 126.444 24.4965 127.048 23.9213C127.651 23.3441 127.952 22.418 127.952 21.1431V20.1851C127.685 20.6111 127.25 20.997 126.647 21.3427C126.046 21.6874 125.266 21.8603 124.31 21.8603C123.439 21.8603 122.633 21.7018 121.889 21.3818C121.142 21.0628 120.501 20.6204 119.961 20.0524C119.42 19.4854 118.994 18.8166 118.684 18.0459C118.372 17.2752 118.218 16.4294 118.218 15.5075C118.218 14.639 118.368 13.82 118.67 13.0482C118.971 12.2776 119.387 11.5995 119.92 11.014C120.452 10.4295 121.091 9.96855 121.834 9.63208C122.58 9.29561 123.404 9.12686 124.309 9.12686C125.354 9.12686 126.178 9.3131 126.779 9.68456C127.382 10.056 127.8 10.4645 128.03 10.907V9.36764H131.434V21.0371C131.434 21.9416 131.305 22.8049 131.05 23.6291C130.792 24.4543 130.388 25.1797 129.839 25.8095C129.289 26.4382 128.578 26.9434 127.713 27.3241C126.844 27.7048 125.797 27.8962 124.574 27.8962C123.669 27.8962 122.849 27.7676 122.113 27.5114C121.377 27.2541 120.734 26.9084 120.185 26.4742C119.636 26.0389 119.192 25.5347 118.856 24.9595C118.518 24.3823 118.305 23.7845 118.217 23.165L121.41 22.313ZM124.918 18.831C125.821 18.831 126.563 18.5295 127.137 17.9265C127.715 17.3246 128.002 16.5179 128.002 15.5074C128.002 14.497 127.7 13.6954 127.097 13.1017C126.494 12.508 125.768 12.2106 124.918 12.2106C124.473 12.2106 124.061 12.2868 123.682 12.437C123.3 12.5872 122.966 12.8085 122.682 13.1017C122.399 13.3939 122.178 13.7448 122.018 14.1523C121.86 14.5598 121.779 15.0125 121.779 15.5074C121.779 16.5364 122.071 17.3472 122.656 17.9399C123.241 18.5336 123.995 18.831 124.918 18.831Z" fill="#F2F4F8"/>
<path fill-rule="evenodd" clip-rule="evenodd" d="M142.469 12.8763C142.115 12.8053 141.761 12.7693 141.405 12.7693C140.945 12.7693 140.511 12.8321 140.102 12.9556C139.694 13.079 139.341 13.2838 139.039 13.5668C138.737 13.8508 138.494 14.2274 138.307 14.6966C138.122 15.1668 138.029 15.7564 138.029 16.4643V22.4457H134.49V9.36756H137.92V11.3082C138.117 10.8822 138.369 10.5334 138.68 10.2576C138.99 9.98391 139.317 9.77606 139.663 9.63304C140.009 9.49104 140.354 9.39432 140.7 9.34081C141.046 9.28833 141.36 9.26158 141.643 9.26158C141.786 9.26158 141.922 9.2657 142.055 9.27496C142.19 9.28422 142.327 9.2976 142.467 9.31509V12.8763H142.469Z" fill="#F2F4F8"/>
<path fill-rule="evenodd" clip-rule="evenodd" d="M143.719 18.8834C143.719 18.299 143.822 17.7804 144.024 17.3276C144.227 16.8749 144.507 16.4818 144.86 16.1453C145.216 15.8089 145.628 15.5434 146.097 15.3489C146.567 15.1544 147.078 15.0125 147.626 14.9229L150.845 14.4445C151.217 14.392 151.474 14.2809 151.615 14.1131C151.758 13.9444 151.828 13.7458 151.828 13.5143C151.828 13.0533 151.647 12.6551 151.283 12.3176C150.919 11.9811 150.366 11.8124 149.621 11.8124C148.841 11.8124 148.244 12.0254 147.826 12.4503C147.41 12.8763 147.174 13.3723 147.122 13.9392L143.983 13.2745C144.036 12.76 144.196 12.2466 144.462 11.7321C144.728 11.2187 145.091 10.7577 145.552 10.3502C146.014 9.94274 146.581 9.61039 147.255 9.35315C147.928 9.09591 148.708 8.96729 149.594 8.96729C150.622 8.96729 151.501 9.10414 152.228 9.37887C152.954 9.6536 153.543 10.0168 153.996 10.4685C154.448 10.9203 154.776 11.4481 154.979 12.0501C155.184 12.653 155.287 13.2817 155.287 13.9372V20.3703C155.287 20.7253 155.303 21.1019 155.339 21.5001C155.375 21.8983 155.409 22.2131 155.446 22.4447H152.202C152.166 22.2677 152.136 22.0238 152.109 21.7131C152.083 21.4033 152.069 21.1245 152.069 20.8755C151.731 21.39 151.248 21.8417 150.62 22.2317C149.991 22.6216 149.188 22.8161 148.213 22.8161C147.521 22.8161 146.896 22.706 146.339 22.4827C145.781 22.2615 145.306 21.9703 144.916 21.6061C144.526 21.2418 144.228 20.8261 144.025 20.3569C143.823 19.8877 143.719 19.3979 143.719 18.8834ZM148.958 20.1859C149.328 20.1859 149.688 20.1375 150.034 20.0398C150.38 19.942 150.686 19.7743 150.953 19.5356C151.219 19.2958 151.43 18.9861 151.59 18.6044C151.749 18.2247 151.829 17.74 151.829 17.1566V16.5722L148.878 17.0229C148.418 17.0939 148.03 17.2585 147.722 17.5157C147.41 17.773 147.256 18.1588 147.256 18.6713C147.256 19.0623 147.397 19.4131 147.682 19.7218C147.965 20.0305 148.389 20.1859 148.958 20.1859Z" fill="#F2F4F8"/>
<path fill-rule="evenodd" clip-rule="evenodd" d="M158.316 27.4969V9.36757H161.748V10.9625C162.05 10.448 162.544 10.0055 163.236 9.63305C163.927 9.26056 164.769 9.07535 165.763 9.07535C166.72 9.07535 167.57 9.24718 168.316 9.59292C169.06 9.93865 169.693 10.4181 170.218 11.0294C170.741 11.6406 171.135 12.3588 171.399 13.183C171.665 14.0072 171.798 14.9065 171.798 15.8809C171.798 16.8739 171.653 17.7896 171.359 18.6324C171.068 19.473 170.651 20.2005 170.111 20.8117C169.568 21.4229 168.919 21.9034 168.155 22.2471C167.393 22.5929 166.55 22.7667 165.63 22.7667C164.725 22.7667 163.949 22.6114 163.302 22.3017C162.656 21.9909 162.171 21.6143 161.852 21.1719V27.4979H158.316V27.4969ZM168.315 15.9066C168.315 14.7366 167.999 13.8332 167.37 13.1942C166.741 12.5563 165.975 12.2373 165.07 12.2373C164.608 12.2373 164.184 12.3216 163.794 12.4904C163.404 12.6591 163.058 12.8979 162.756 13.2086C162.455 13.5194 162.221 13.8991 162.052 14.3508C161.883 14.8025 161.799 15.3211 161.799 15.9066C161.799 16.491 161.883 17.0106 162.052 17.4603C162.221 17.912 162.455 18.2979 162.756 18.6179C163.058 18.9379 163.404 19.1807 163.794 19.3484C164.184 19.5182 164.608 19.6005 165.07 19.6005C165.975 19.6005 166.741 19.2785 167.37 18.6313C168 17.9851 168.315 17.0765 168.315 15.9066Z" fill="#F2F4F8"/>
<path fill-rule="evenodd" clip-rule="evenodd" d="M177.595 22.4468H174.059V3.2H177.595V10.4573C178.022 9.9428 178.562 9.57649 179.218 9.35423C179.873 9.13198 180.513 9.02188 181.131 9.02188C181.966 9.02188 182.688 9.15873 183.298 9.43346C183.912 9.7082 184.416 10.0766 184.814 10.5375C185.215 10.9985 185.51 11.547 185.705 12.1859C185.899 12.8239 185.998 13.4968 185.998 14.2058V22.4468H182.461V14.817C182.461 14.072 182.27 13.4526 181.888 12.9556C181.508 12.4596 180.89 12.2117 180.04 12.2117C179.296 12.2117 178.711 12.4545 178.285 12.9422C177.861 13.43 177.629 14.037 177.593 14.7635V22.4468H177.595Z" fill="#F2F4F8"/>
<rect width="32" height="32" fill="black" fill-opacity="0"/>
<rect width="24.9741" height="25.475" fill="black" fill-opacity="0" transform="translate(3.20117 3.325)"/>
<path fill-rule="evenodd" clip-rule="evenodd" d="M10.4355 6.56999L15.993 26.9103C16.3672 28.2768 17.7761 29.0818 19.1411 28.7088C20.506 28.3337 21.3091 26.922 20.936 25.5555L15.3775 5.21411C15.0033 3.84752 13.5944 3.04257 12.2294 3.41664C10.8655 3.79071 10.0613 5.20232 10.4355 6.56999Z" fill="#FF5543"/>
<path fill-rule="evenodd" clip-rule="evenodd" d="M20.7301 6.4928L6.81239 22.2263C5.87417 23.2874 5.97175 24.9102 7.03112 25.8502C8.0905 26.7902 9.70959 26.6916 10.6478 25.6305L24.5655 9.89696C25.5037 8.83584 25.4062 7.21415 24.3468 6.27414C23.2874 5.33414 21.6694 5.43168 20.7301 6.4928Z" fill="#B200F8"/>
<path fill-rule="evenodd" clip-rule="evenodd" d="M4.95942 15.2123L24.8077 21.7848C26.1512 22.2307 27.5998 21.4997 28.0448 20.1545C28.4898 18.8083 27.7596 17.357 26.4172 16.9133L6.56778 10.3375C5.22426 9.89381 3.77566 10.6227 3.33175 11.9689C2.88677 13.3151 3.61589 14.7664 4.95942 15.2123Z" fill="#00CBEC"/>
</svg>

<svg width="186" height="32" fill="none" xmlns="http://www.w3.org/2000/svg"><path fill="none" d="M0 0h186v32H0z"/><path fill="none" d="M38.414 3.2H186v24.696H38.414z"/><path fill-rule="evenodd" clip-rule="evenodd" d="M41.444 18.14c.035.515.249.975.639 1.383.389.407.974.612 1.755.612.585 0 1.019-.129 1.304-.386.282-.256.425-.563.425-.917 0-.302-.107-.563-.32-.785-.213-.221-.577-.385-1.09-.492l-1.728-.4c-1.277-.282-2.208-.774-2.793-1.475a3.682 3.682 0 0 1-.878-2.432c0-.586.123-1.138.372-1.662a4.15 4.15 0 0 1 1.025-1.356 5.12 5.12 0 0 1 1.543-.917 5.377 5.377 0 0 1 1.954-.345c.922 0 1.702.129 2.34.386.638.257 1.157.58 1.556.97s.695.802.89 1.236c.194.435.31.829.346 1.184l-2.951.663a3.32 3.32 0 0 0-.173-.598 1.676 1.676 0 0 0-.385-.572 1.98 1.98 0 0 0-.652-.425c-.257-.106-.571-.16-.944-.16-.46 0-.855.125-1.184.372-.327.25-.492.56-.492.93 0 .32.11.577.333.772.221.195.51.327.865.398l1.86.399c1.294.266 2.265.762 2.913 1.489.647.727.97 1.568.97 2.525 0 .533-.103 1.054-.305 1.568a3.91 3.91 0 0 1-.944 1.383c-.425.408-.958.736-1.596.983-.638.247-1.382.372-2.233.372-.993 0-1.825-.142-2.5-.425-.674-.283-1.223-.63-1.649-1.037a4.067 4.067 0 0 1-.944-1.315c-.204-.47-.324-.89-.359-1.263l3.03-.662ZM57.08 8.968c.975 0 1.884.172 2.726.518a6.596 6.596 0 0 1 2.181 1.435 6.553 6.553 0 0 1 1.436 2.193c.346.85.52 1.781.52 2.791 0 1.011-.174 1.936-.52 2.779a6.712 6.712 0 0 1-1.436 2.192 6.463 6.463 0 0 1-2.18 1.45 7.107 7.107 0 0 1-2.727.518 7.098 7.098 0 0 1-2.725-.519 6.475 6.475 0 0 1-2.18-1.448 6.7 6.7 0 0 1-1.438-2.193c-.345-.843-.518-1.768-.518-2.779 0-1.009.173-1.94.518-2.791a6.53 6.53 0 0 1 1.438-2.193 6.582 6.582 0 0 1 2.18-1.435 7.126 7.126 0 0 1 2.725-.518Zm0 10.66c.427 0 .843-.079 1.25-.24a2.972 2.972 0 0 0 1.065-.703c.3-.31.544-.696.731-1.157.187-.46.28-1 .28-1.621 0-.62-.093-1.16-.28-1.622a3.57 3.57 0 0 0-.731-1.156 2.994 2.994 0 0 0-1.065-.705 3.399 3.399 0 0 0-2.5 0c-.407.16-.76.395-1.062.705a3.55 3.55 0 0 0-.731 1.156c-.187.461-.28 1.001-.28 1.622 0 .62.095 1.16.28 1.621.186.461.429.847.73 1.157.302.31.656.544 1.064.704.408.16.824.239 1.25.239ZM74.713 22.447a3.53 3.53 0 0 1-.08-.612 11.441 11.441 0 0 1-.026-.798 3.054 3.054 0 0 1-1.556 1.344 5.505 5.505 0 0 1-2.06.412c-.798 0-1.502-.14-2.115-.412a4.733 4.733 0 0 1-1.555-1.104 4.653 4.653 0 0 1-.97-1.635 6.001 6.001 0 0 1-.333-2.007V9.368h3.536v7.55c0 .744.19 1.368.573 1.873.38.504.988.757 1.822.757.797 0 1.41-.238 1.835-.717.425-.479.638-1.099.638-1.861V9.368h3.537V20.08c0 .515.013.98.04 1.397.027.416.058.74.093.97h-3.38ZM89.177 12.876a5.394 5.394 0 0 0-1.064-.107c-.46 0-.895.063-1.303.187a2.664 2.664 0 0 0-1.063.61c-.302.285-.546.661-.73 1.13-.187.47-.28 1.06-.28 1.768v5.982H81.2V9.368h3.431v1.94c.195-.426.448-.775.758-1.05.31-.274.638-.482.984-.625a4.554 4.554 0 0 1 1.036-.292c.346-.053.661-.08.944-.08a5.916 5.916 0 0 1 .824.054v3.561ZM96.889 12.238c-.461 0-.891.08-1.29.24-.4.16-.75.394-1.05.704a3.37 3.37 0 0 0-.718 1.156c-.178.462-.266.984-.266 1.569 0 .584.088 1.108.266 1.568.177.462.42.85.73 1.17.31.32.666.558 1.064.717.4.16.829.239 1.29.239.443 0 .838-.065 1.183-.199.345-.133.643-.306.892-.518.248-.213.448-.452.598-.718.15-.265.261-.522.333-.77l3.11 1.036a5.764 5.764 0 0 1-1.968 3.018 6.38 6.38 0 0 1-1.808 1.008c-.691.257-1.472.386-2.34.386a7.036 7.036 0 0 1-2.7-.519 6.627 6.627 0 0 1-3.654-3.641c-.356-.842-.534-1.768-.534-2.778s.173-1.941.52-2.792a6.53 6.53 0 0 1 1.436-2.193 6.659 6.659 0 0 1 2.153-1.435 6.86 6.86 0 0 1 2.673-.518c.887 0 1.68.129 2.38.386s1.307.589 1.822.997c.514.408.93.877 1.249 1.409.319.532.55 1.072.692 1.622l-3.164 1.063c-.16-.549-.467-1.054-.918-1.515-.452-.461-1.113-.692-1.981-.692ZM116.701 18.698a5.564 5.564 0 0 1-2.021 2.922 6.08 6.08 0 0 1-1.741.89 6.874 6.874 0 0 1-2.193.333 7.202 7.202 0 0 1-2.58-.465 6.248 6.248 0 0 1-2.153-1.369 6.54 6.54 0 0 1-1.476-2.208c-.364-.866-.545-1.851-.545-2.95 0-1.045.176-1.994.532-2.844a6.61 6.61 0 0 1 1.423-2.166 6.359 6.359 0 0 1 2.062-1.382 6.174 6.174 0 0 1 2.419-.493c2.038 0 3.624.603 4.76 1.808 1.135 1.205 1.701 2.862 1.701 4.971 0 .25-.008.483-.026.705-.018.221-.026.35-.026.385h-9.36c.017.425.12.82.306 1.182.186.364.425.68.718.945.292.265.634.474 1.024.624.39.15.806.226 1.25.226.832 0 1.483-.188 1.953-.56.471-.37.812-.85 1.023-1.435l2.95.881Zm-3.296-4.28a3.186 3.186 0 0 0-.198-.944 2.255 2.255 0 0 0-.531-.823 2.747 2.747 0 0 0-.905-.585c-.365-.15-.794-.226-1.291-.226a2.95 2.95 0 0 0-2.126.851 2.698 2.698 0 0 0-.797 1.728h5.848v-.001ZM121.41 22.313a2.93 2.93 0 0 0 .983 1.781c.533.46 1.224.69 2.075.69 1.116 0 1.976-.287 2.58-.863.603-.577.904-1.503.904-2.778v-.958c-.267.426-.702.812-1.305 1.158-.601.344-1.381.517-2.337.517a6.058 6.058 0 0 1-2.421-.478 5.729 5.729 0 0 1-1.928-1.33 6.253 6.253 0 0 1-1.277-2.006c-.312-.77-.466-1.617-.466-2.538 0-.869.15-1.688.452-2.46a6.505 6.505 0 0 1 1.25-2.034 5.783 5.783 0 0 1 1.914-1.382c.746-.336 1.57-.505 2.475-.505 1.045 0 1.869.186 2.47.558.603.371 1.021.78 1.251 1.222v-1.54h3.404v11.67c0 .905-.129 1.768-.384 2.592a6.002 6.002 0 0 1-1.211 2.18c-.55.63-1.261 1.134-2.126 1.515-.869.38-1.916.572-3.139.572-.905 0-1.725-.128-2.461-.385a6.578 6.578 0 0 1-1.928-1.037 5.41 5.41 0 0 1-1.329-1.515 4.89 4.89 0 0 1-.639-1.794l3.193-.852Zm3.508-3.482c.903 0 1.645-.302 2.219-.904.578-.602.865-1.41.865-2.42s-.302-1.812-.905-2.405a2.994 2.994 0 0 0-2.179-.891c-.445 0-.857.076-1.236.226-.382.15-.716.372-1 .665a3.14 3.14 0 0 0-.664 1.05c-.158.408-.239.86-.239 1.355 0 1.03.292 1.84.877 2.433.585.594 1.339.891 2.262.891ZM142.469 12.876a5.394 5.394 0 0 0-1.064-.107c-.46 0-.894.063-1.303.187a2.657 2.657 0 0 0-1.063.61c-.302.285-.545.661-.732 1.13-.185.47-.278 1.06-.278 1.768v5.982h-3.539V9.368h3.43v1.94c.197-.426.449-.775.76-1.05a3.51 3.51 0 0 1 .983-.625 4.558 4.558 0 0 1 1.037-.292c.346-.053.66-.08.943-.08a5.913 5.913 0 0 1 .824.054v3.561h.002ZM143.719 18.883c0-.584.103-1.103.305-1.555.203-.453.483-.846.836-1.183a4.031 4.031 0 0 1 1.237-.796c.47-.195.981-.337 1.529-.426l3.219-.479c.372-.052.629-.163.77-.33a.893.893 0 0 0 .213-.6c0-.46-.181-.859-.545-1.196-.364-.337-.917-.506-1.662-.506-.78 0-1.377.213-1.795.638a2.395 2.395 0 0 0-.704 1.49l-3.139-.665a4.309 4.309 0 0 1 .479-1.543 4.762 4.762 0 0 1 1.09-1.382c.462-.407 1.029-.74 1.703-.997.673-.257 1.453-.386 2.339-.386 1.028 0 1.907.137 2.634.412.726.275 1.315.638 1.768 1.09.452.451.78.98.983 1.581a5.82 5.82 0 0 1 .308 1.887v6.433c0 .355.016.732.052 1.13a15 15 0 0 0 .107.945h-3.244a6.91 6.91 0 0 1-.093-.732c-.026-.31-.04-.588-.04-.838-.338.515-.821.967-1.449 1.357-.629.39-1.432.584-2.407.584-.692 0-1.317-.11-1.874-.333a4.472 4.472 0 0 1-1.423-.877 3.686 3.686 0 0 1-1.197-2.723Zm5.239 1.303c.37 0 .73-.049 1.076-.146.346-.098.652-.266.919-.504.266-.24.477-.55.637-.932.159-.38.239-.864.239-1.447v-.585l-2.951.45c-.46.072-.848.237-1.156.494-.312.257-.466.643-.466 1.155 0 .391.141.742.426 1.05.283.31.707.465 1.276.465ZM158.316 27.497V9.367h3.432v1.595c.302-.514.796-.957 1.488-1.329.691-.372 1.533-.558 2.527-.558.957 0 1.807.172 2.553.518a5.57 5.57 0 0 1 1.902 1.436c.523.612.917 1.33 1.181 2.154.266.824.399 1.723.399 2.698 0 .993-.145 1.909-.439 2.751a6.428 6.428 0 0 1-1.248 2.18 5.729 5.729 0 0 1-1.956 1.435c-.762.346-1.605.52-2.525.52-.905 0-1.681-.156-2.328-.465-.646-.311-1.131-.688-1.45-1.13v6.326h-3.536v-.001Zm9.999-11.59c0-1.17-.316-2.074-.945-2.713-.629-.638-1.395-.957-2.3-.957-.462 0-.886.085-1.276.253-.39.17-.736.408-1.038.719-.301.31-.535.69-.704 1.142-.169.451-.253.97-.253 1.556 0 .584.084 1.104.253 1.553.169.452.403.838.704 1.158.302.32.648.563 1.038.73.39.17.814.253 1.276.253.905 0 1.671-.322 2.3-.97.63-.646.945-1.555.945-2.724ZM177.595 22.447h-3.536V3.2h3.536v7.257c.427-.514.967-.88 1.623-1.103a5.945 5.945 0 0 1 1.913-.332c.835 0 1.557.137 2.167.411a4.272 4.272 0 0 1 1.516 1.104 4.45 4.45 0 0 1 .891 1.649c.194.638.293 1.31.293 2.02v8.24h-3.537v-7.629c0-.745-.191-1.364-.573-1.861-.38-.496-.998-.744-1.848-.744-.744 0-1.329.242-1.755.73-.424.488-.656 1.095-.692 1.822v7.683h.002Z" fill="#F2F4F8"/><path fill="none" d="M0 0h32v32H0z"/><path fill="none" d="M3.201 3.325h24.974V28.8H3.201z"/><path fill-rule="evenodd" clip-rule="evenodd" d="m10.435 6.57 5.558 20.34a2.564 2.564 0 0 0 3.148 1.799 2.568 2.568 0 0 0 1.795-3.154l-5.559-20.34a2.563 2.563 0 1 0-4.942 1.355Z" fill="#FF5543"/><path fill-rule="evenodd" clip-rule="evenodd" d="M20.73 6.493 6.812 22.226a2.57 2.57 0 0 0 .22 3.624c1.059.94 2.678.842 3.616-.22L24.566 9.898a2.57 2.57 0 0 0-.22-3.623 2.559 2.559 0 0 0-3.616.219Z" fill="#B200F8"/><path fill-rule="evenodd" clip-rule="evenodd" d="m4.96 15.212 19.848 6.573a2.565 2.565 0 0 0 1.61-4.872l-19.85-6.575a2.568 2.568 0 0 0-1.608 4.875Z" fill="#00CBEC"/></svg>
